build/assets/img/svg/icon-process.svg

<svg width="24" height="24" viewBox="0 0 24 24" fill="none" xmlns="http://www.w3.org/2000/svg">
<path d="M1.044 12.8806C1.06325 13.1227 1.2387 13.3235 1.4763 13.3747L3.39306 13.7884C3.46071 14.1152 3.54651 14.4377 3.65046 14.7524L2.19955 16.0674C2.0197 16.2303 1.968 16.4922 2.0725 16.7117C2.3376 17.2696 2.63295 17.7852 2.9503 18.244C3.08781 18.4432 3.33971 18.529 3.57126 18.4548L5.43411 17.8545C5.65686 18.1043 5.89391 18.3414 6.14361 18.5643L5.54356 20.4278C5.46931 20.6584 5.55456 20.9109 5.75421 21.049C6.21291 21.3665 6.72826 21.6619 7.28597 21.9271C7.50597 22.0317 7.76722 21.9794 7.93002 21.8L9.24452 20.3486C9.55967 20.452 9.88197 20.5384 10.2087 20.6061L10.6223 22.5236C10.6734 22.7607 10.8742 22.9362 11.1156 22.956C11.4082 22.9791 11.7014 23.0001 12 23.0001C12.2987 23.0001 12.5918 22.9791 12.8844 22.956C13.1264 22.9368 13.3272 22.7613 13.3783 22.5236L13.7919 20.6061C14.1186 20.5384 14.4415 20.4526 14.7561 20.3486L16.0706 21.8C16.2339 21.98 16.4957 22.0322 16.7146 21.9271C17.2723 21.6619 17.7877 21.3659 18.2464 21.049C18.446 20.9109 18.5313 20.6584 18.457 20.4278L17.857 18.5643C18.1067 18.3414 18.3437 18.1043 18.5665 17.855L20.4293 18.4553C20.6598 18.5301 20.9122 18.4443 21.0503 18.2446C21.3677 17.7857 21.663 17.2702 21.9281 16.7122C22.0326 16.4927 21.9809 16.2308 21.801 16.0679L20.3501 14.7529C20.4535 14.4377 20.5399 14.1152 20.6075 13.7884L22.5243 13.3747C22.7614 13.3235 22.9368 13.1227 22.9566 12.8811C22.9792 12.5879 23.0001 12.2946 23.0001 11.9958C23.0001 11.6971 22.9792 11.4038 22.9561 11.1111C22.9368 10.869 22.7614 10.6682 22.5238 10.617L20.607 10.2032C20.5393 9.87642 20.4535 9.55344 20.3496 9.23872L21.8005 7.92372C21.9804 7.76086 22.0321 7.49896 21.9275 7.27942C21.6624 6.72151 21.3665 6.20596 21.0497 5.74708C20.9117 5.54736 20.6592 5.46153 20.4288 5.53635L18.5659 6.13663C18.3432 5.88684 18.1061 5.6497 17.8564 5.42686L18.4565 3.5633C18.5307 3.33276 18.4455 3.08021 18.2458 2.94211C17.7871 2.62464 17.2718 2.32917 16.7141 2.06397C16.4941 1.95888 16.2328 2.01115 16.07 2.19107L14.7555 3.64253C14.4404 3.53909 14.1181 3.4527 13.7914 3.38503L13.3778 1.46754C13.3266 1.2304 13.1259 1.05488 12.8844 1.03508C12.2987 0.987759 11.7008 0.988859 11.1151 1.03508C10.8731 1.05433 10.6723 1.22985 10.6212 1.46754L10.2076 3.38503C9.88087 3.4527 9.55857 3.53854 9.24397 3.64253L7.92947 2.19107C7.76667 2.01115 7.50542 1.95943 7.28542 2.06397C6.72771 2.32917 6.21236 2.62464 5.75366 2.94211C5.55401 3.08021 5.46876 3.33276 5.54301 3.5633L6.14306 5.42686C5.89336 5.6497 5.65631 5.88684 5.43356 6.13663L3.57126 5.53635C3.34026 5.46153 3.08781 5.54736 2.9503 5.74708C2.63295 6.20596 2.3376 6.72151 2.0725 7.27942C1.968 7.49896 2.0197 7.76086 2.19955 7.92372L3.65046 9.23872C3.54706 9.55399 3.46071 9.87642 3.39306 10.2032L1.4763 10.617C1.23925 10.6682 1.0638 10.869 1.044 11.1105C1.0209 11.4038 1 11.6971 1 11.9958C1 12.2946 1.0209 12.5879 1.044 12.8806V12.8806ZM2.11155 11.6057L3.98266 11.2013C4.20376 11.1535 4.37316 10.9752 4.40946 10.7518C4.49196 10.2445 4.62506 9.74657 4.80491 9.27119C4.88521 9.05991 4.82746 8.82056 4.65971 8.6687L3.24676 7.38781C3.36996 7.15177 3.49866 6.92564 3.63176 6.7116L5.44456 7.29593C5.65906 7.36471 5.89556 7.29593 6.03911 7.12096C6.36361 6.72371 6.72991 6.35782 7.12701 6.03264C7.30192 5.88959 7.37177 5.65355 7.30192 5.43787L6.71781 3.62437C6.93176 3.49067 7.15726 3.36192 7.39377 3.23922L8.67417 4.65327C8.82652 4.82108 9.06632 4.87885 9.27697 4.79852C9.75107 4.6186 10.2488 4.48545 10.7565 4.40292C10.9798 4.36661 11.158 4.19714 11.2058 3.97595L11.6095 2.10414C11.8686 2.09038 12.132 2.08983 12.39 2.10414L12.7942 3.97595C12.8421 4.19714 13.0203 4.36661 13.2436 4.40292C13.7507 4.48545 14.2484 4.6186 14.7236 4.79852C14.9337 4.87885 15.1735 4.82163 15.3259 4.65327L16.6063 3.23977C16.8422 3.36302 17.0683 3.49177 17.2822 3.62492L16.6981 5.43842C16.6288 5.6541 16.6981 5.88959 16.873 6.03319C17.2701 6.35782 17.6359 6.72426 17.9609 7.12151C18.1045 7.29703 18.3404 7.36691 18.5555 7.29648L20.3683 6.71215C20.5019 6.92619 20.6306 7.15177 20.7533 7.38781L19.3398 8.6687C19.172 8.82056 19.1143 9.05991 19.1946 9.27174C19.3744 9.74602 19.5075 10.244 19.59 10.7518C19.6263 10.9752 19.7957 11.1535 20.0168 11.2013L21.888 11.6052C21.8951 11.7345 21.9001 11.8649 21.9001 11.9958C21.9001 12.1268 21.8957 12.2572 21.8885 12.3859L20.0174 12.7903C19.7963 12.8382 19.6269 13.0165 19.5906 13.2399C19.5081 13.7472 19.375 14.2451 19.1951 14.7205C19.1148 14.9318 19.1726 15.1711 19.3403 15.323L20.7533 16.6038C20.6301 16.8399 20.5014 17.066 20.3683 17.2801L18.5555 16.6957C18.3393 16.6253 18.1045 16.6952 17.9609 16.8707C17.637 17.2669 17.2707 17.6333 16.873 17.959C16.6981 18.1021 16.6288 18.3381 16.6981 18.5532L17.2822 20.3667C17.0683 20.5004 16.8428 20.6292 16.6068 20.7519L15.3264 19.3378C15.1746 19.17 14.9354 19.1134 14.7236 19.1926C14.2495 19.3725 13.7518 19.5057 13.2441 19.5882C13.0208 19.6245 12.8426 19.794 12.7948 20.0152L12.3911 21.887C12.132 21.9007 11.8686 21.9013 11.6106 21.887L11.2064 20.0152C11.1585 19.794 10.9803 19.6245 10.757 19.5882C10.2499 19.5057 9.75217 19.3725 9.27697 19.1926C9.06632 19.1123 8.82652 19.1695 8.67472 19.3378L7.39432 20.7513C7.15837 20.6281 6.93231 20.4993 6.71836 20.3662L7.30246 18.5527C7.37177 18.337 7.30247 18.1015 7.12756 17.9579C6.73046 17.6333 6.36471 17.2669 6.03966 16.8696C5.89611 16.6941 5.65961 16.6248 5.44511 16.6946L3.63231 17.279C3.49866 17.0649 3.36996 16.8393 3.24731 16.6028L4.66081 15.3219C4.82856 15.17 4.88631 14.9307 4.80601 14.7188C4.62616 14.2445 4.49306 13.7466 4.41056 13.2388C4.37426 13.0154 4.20486 12.8371 3.98376 12.7892L2.11155 12.3865C2.10495 12.2572 2.1 12.1268 2.1 11.9958C2.1 11.8649 2.1044 11.7345 2.11155 11.6057V11.6057Z" fill="#A62E41"/>
<path d="M12.0006 18.2858C15.4663 18.2858 18.2863 15.4658 18.2863 12.0001C18.2863 8.53436 15.4663 5.71436 12.0006 5.71436C8.53485 5.71436 5.71484 8.53436 5.71484 12.0001C5.71484 15.4658 8.53485 18.2858 12.0006 18.2858ZM12.0006 6.85722C14.836 6.85722 17.1434 9.16465 17.1434 12.0001C17.1434 14.8355 14.836 17.143 12.0006 17.143C9.16514 17.143 6.8577 14.8355 6.8577 12.0001C6.8577 9.16465 9.16514 6.85722 12.0006 6.85722Z" fill="#A62E41"/>
</svg>

<svg width="24" height="24" fill="none" xmlns="http://www.w3.org/2000/svg"><path d="M1.044 12.88a.55.55 0 00.432.495l1.917.413c.068.327.154.65.257.964L2.2 16.067a.55.55 0 00-.128.645 11 11 0 00.878 1.532c.138.2.39.285.621.21l1.863-.6c.223.25.46.487.71.71l-.6 1.864a.55.55 0 00.21.621c.459.317.974.613 1.532.878a.55.55 0 00.644-.127l1.315-1.451c.315.103.637.19.964.257l.413 1.918a.55.55 0 00.494.432c.292.023.585.044.884.044.299 0 .592-.02.884-.044a.55.55 0 00.494-.432l.414-1.918a8.7 8.7 0 00.964-.257l1.315 1.451c.163.18.425.232.644.127a11.055 11.055 0 001.531-.878.55.55 0 00.211-.621l-.6-1.864c.25-.223.487-.46.71-.709l1.862.6a.55.55 0 00.621-.21c.318-.46.613-.975.878-1.533a.55.55 0 00-.127-.644l-1.45-1.315c.102-.315.189-.638.257-.965l1.916-.413a.55.55 0 00.433-.494c.022-.293.043-.586.043-.885 0-.299-.02-.592-.044-.885a.55.55 0 00-.432-.494l-1.917-.414a8.728 8.728 0 00-.257-.964l1.45-1.315a.55.55 0 00.127-.645 11.06 11.06 0 00-.877-1.532.549.549 0 00-.621-.21l-1.863.6a8.808 8.808 0 00-.71-.71l.6-1.864a.55.55 0 00-.21-.62 10.996 10.996 0 00-1.532-.879.549.549 0 00-.644.127l-1.315 1.452a8.846 8.846 0 00-.964-.258l-.413-1.917a.55.55 0 00-.494-.433 11.173 11.173 0 00-1.769 0 .55.55 0 00-.494.433l-.413 1.917a8.684 8.684 0 00-.964.258L7.929 2.19a.55.55 0 00-.644-.127c-.557.265-1.073.56-1.531.878a.55.55 0 00-.211.621l.6 1.864c-.25.223-.487.46-.71.71l-1.862-.6a.549.549 0 00-.62.21c-.318.459-.613.975-.879 1.532a.55.55 0 00.128.645l1.45 1.315c-.103.315-.19.637-.257.964l-1.917.414a.55.55 0 00-.432.493c-.023.294-.044.587-.044.886 0 .299.02.592.044.885zm1.068-1.274l1.87-.405a.55.55 0 00.427-.45 7.672 7.672 0 01.396-1.48.55.55 0 00-.145-.602L3.247 7.388c.123-.236.252-.462.385-.676l1.813.584c.214.069.45 0 .594-.175.325-.397.69-.763 1.088-1.088a.55.55 0 00.175-.595l-.584-1.814c.214-.133.44-.262.676-.385l1.28 1.414a.55.55 0 00.603.146c.474-.18.972-.314 1.48-.396a.55.55 0 00.449-.427l.404-1.872a7.24 7.24 0 01.78 0l.404 1.872a.55.55 0 00.45.427 7.664 7.664 0 011.48.396c.21.08.45.023.602-.146l1.28-1.413c.236.123.462.252.676.385l-.584 1.813a.55.55 0 00.175.595c.397.325.763.691 1.088 1.089.144.175.38.245.595.174l1.812-.584c.134.214.263.44.385.676l-1.413 1.28a.55.55 0 00-.145.604c.18.474.313.972.395 1.48a.55.55 0 00.427.45l1.871.403a7.125 7.125 0 010 .78l-1.87.405a.55.55 0 00-.427.45 7.67 7.67 0 01-.396 1.48.55.55 0 00.145.603l1.413 1.28a10.36 10.36 0 01-.385.677l-1.813-.584a.548.548 0 00-.594.175 7.77 7.77 0 01-1.088 1.088c-.175.143-.244.38-.175.594l.584 1.814a9.83 9.83 0 01-.675.385l-1.28-1.414a.552.552 0 00-.603-.145c-.475.18-.972.313-1.48.395a.55.55 0 00-.45.427l-.403 1.872a7.248 7.248 0 01-.78 0l-.405-1.872a.55.55 0 00-.449-.427 7.664 7.664 0 01-1.48-.395.549.549 0 00-.602.145l-1.28 1.413a10.352 10.352 0 01-.677-.385l.584-1.813a.55.55 0 00-.174-.595A7.73 7.73 0 016.04 16.87a.55.55 0 00-.595-.175l-1.813.584a9.78 9.78 0 01-.385-.676l1.414-1.281a.55.55 0 00.145-.603 7.636 7.636 0 01-.395-1.48.55.55 0 00-.427-.45l-1.872-.402a7.044 7.044 0 010-.78v-.001z" fill="#A62E41"/><path d="M12 18.286A6.293 6.293 0 0018.287 12a6.293 6.293 0 00-6.285-6.286A6.293 6.293 0 005.715 12 6.293 6.293 0 0012 18.286zm0-11.429A5.15 5.15 0 0117.144 12a5.15 5.15 0 01-5.142 5.143A5.15 5.15 0 016.858 12 5.15 5.15 0 0112 6.857z" fill="#A62E41"/></svg>
